X:1
M:4/4
L:1/16
Q:"Vivace"
%%continueall 1
%%maxshrink 0.6
%%staves {1 2} 3
K:Cm
V:1
g4EDEF G2g2Pf2e2|f4DCDE F2f2Pe2d2|edcB AcFe dcBA GBE_d|cBAG FA=Dc =B2cd efga|
V:2
e4C=B,CD E2e2Pd2c2|d4=B,=A,B,C D2d2Pc2=B2|c2e4A2- A2d4G2-|G2c4F2- FDEF GA_Bc|
V:3
C2C,2z4z8|G,2G,,2z4z8|C,2C2F,2C2 B,,2B,2E,2B,2|A,,2A,2=D,2A,2 G,,2G,4F,2|
V:1
b4GFGA Bc_db adgd|a4AGAB c=dea daca|=B2a2g2f2 G2f2e2d2|c2d2G2=B2 cC=B,C ECGC|
V:2
_d4=E=DEF G2g2f2=e2|f4F=EFG A2G2F2_E2|FEDC =B,DG,D EFG=A =BdGB|cE_AG FEDC C2z2z4|
V:3
=E,2=E,,2z4z8|_E,2_E,,2z4z8|D,,2z2 G,,2z2 C,2z2 G,2z2|A,2F,2G,2G,,2 C,2C4_B,2|
V:1
cGEG cD^F=A =BGDG _BC=EG|=AFCF _AB,DF G2c2B2=A2|G^FGB=e4-e=AFAd4-|dG=EGc4-cD^F=A d=EFc|
V:2
z16|z8zG,^F,G, B,G,DG,|GDB,D G=A,^C=E ^FDA,D =FG,=B,D|=ECG,C _E^F,=A,CD4z4|
V:3
=A,2G,2^F,2D,2 G,2=F,2=E,2C,2|F,2_E,2D,2B,,2E,4D,2C,2|B,,2G,2^C,2=A,2 D,2=C,2=B,,2G,,2|C,2_B,,2=A,,2G,,2 ^F,,2C2B,2=A,2|
% (2)
V:1
B2G2z4zCEG cD=EB|A2F2z4zBdf bcda|g8-gcBc fcac|=d2f2b2d2 e3f d3e|
V:2
zG,B,D G=A,=B,F E2C2z4|zF,_A,C FG,=A,E D2B,2z4|zEGB eFG_dc8-|cB_AB dAfA G3A F3G|
V:3
G,2=F,2E,2D,2 C,2B,2_A,2G,2|F,2E,2D,2C,2 B,,2A,2G,2F,2|E,2_D,2C,2B,,2 A,,2G,,2A,,2F,,2|B,,4z2B,2 C2A,2B,2B,,2|
V:1
e4EDEF G2g2Pf2e2|f4DCDE F2f2Pe2d2|e2g4c2- c2f4B2-|B2e4=A2!trill!!trill(!B8|
V:2
G4G,F,G,A, B,2B2PA2G2|A4F,E,F,G, A,2A2PG2F2|GFED CE=A,G FEDC B,DG,F|EDCB, =A,CF,E DF,G,A, B,CDE|
V:3
E,2E,,2z4z8|B,2B,,2z4z8|E,,2E,2=A,,2E,2 D,,2D,2G,,2D,2|C,,2C,2F,,2F,2B,,4z4|
V:1
=B8!trill)!cBcd efga|bg_db caBg A2PB2c4-|c2f=dG4-Gc=ecF4-|F_BdBE4-EC=B,C ECGC|
V:2
FD_A,F G,EF,D!trill!!trill(!E,8|=E,8!trill)!zF,=E,F, A,F,CF,|FCA,C FG,=B,D =ECG,C _EF,=A,C|D_B,F,B, _DE,G,B, C2F2E2=D2|
V:3
D,4G,,4C,4z4|G,,4C,4F,,2F,4_E,2|_D,2C,2=B,,2G,,2 C,2_B,,2=A,,2F,,2|B,,2_A,,2G,,2E,,2 A,,2A,2G,2F,2|
V:1
cGEG cD^F=A =BGDG _BC=EG|=AFCF _A=B,DFG4z4|zCEG cD=EB A2F2z4|zB,DF BCDA G2E2z4|
V:2
C=B,CE=A4-A2=B,DG4-|G2=A,CF4-FG,=B,D G=A,B,F|E2C2z4zF,A,C FG,=A,E|D2B,2z4zEGB e^FGd|
V:3
E,2C2^F,2D2 G,2=F,2=E,2C2|F,2_E,2D,2C,2 =B,,2F,2E,2D,2|C,2_B,2A,2G,2 F,2E,2D,2C,2|B,,2A,2G,2F,2 E,2D,2C,2B,,2|
% (3)
V:1
zceg c'^fgbe8-|edcd ^fc=ac B3c =A3G|G4g^fg=a b2d2Pc2B2|c4^f=efg =a2c2PB2=A2|B2b4e2- e2=a4d2-|
V:2
c8-cB=AB cAeG|^F2=A2d2F2 G3A F3G|G4B,=A,B,C D2B2P=A2G2|=A4=A,G,A,B, C2A2PG2^F2|G=AG=F EGCB AGFE DFB,_A|
V:3
=A,,2B,,2A,,2G,,2 ^F,,2G,,2A,,2F,,2|D,,4z2D,2 E,2C,2D,2D,,2|G,,2G,2z4z8|D,2D2z4z8|G,,2G,2C,2G,2 F,,2F,2B,,2F,2|
V:1
d2g4c2- c=ABc de=fg|_a4=B=ABc d2f2e2d2|e4c=Bcd e2d2c2_B2|cB=AG ^FADA Bcd=e ^f=adf|
V:2
GFED CE=A,G ^F2G=A Bcde|f4DCDE FG_Ad c_A=BA|[Gc]4EDEF G=A_Be AeGe|^F2e2d2c2 D2c2B2=A2|
V:3
E,,2E,2=A,,2E,2 D,,2D,4C,2|=B,,2=B,2z4z8|_B,,2_B,2z4z8|=A,,2z2 D,2z2 G,2z2 D,2z2|
V:1
gBed cB=AGG4z4|zgfe dedc B2G2B2d2|gedc BcB=A G2B2G2D2|B,=A,G,A, B,A,B,C DEDC B,CB,A,|
V:2
G2=A2D2^F2 Gg=fe dedc|B2G2B2d2 gedc BcB=A|G2B2G2D2 B,=A,G,A, B,A,B,C|DCB,C DEDC B,CB,=A, G,D=E^F|
V:3
E,2C,2D,2D,,2 G,,2G,2B,,2D,2|G,,2G,2z4G,,2G,2z4|G,,2G,2z4G,,2G,2z4|G,,2G,2z4G,,2G,2z4|
V:1
G,D=E^F GFG=A B2g2=f2_e2|f4G^FG=A =B2=f2Pe2d2|e2=B2c2_A2 F2e2d2a2|g2=B2c2E2 D2c2f2=A2|
V:2
G^FG=A BABc dcd_e Gedc|=B=AGA BABc dBcd GdcB|cedf egfe dedc =B_AGF|EFGF EDC_B, A,GFE DEFD|
V:3
G,,16-|G,,16-|G,,16-|G,,8z8|
% (4)
V:1
=Bcde f_agf ec'_ba gagf|e2c2e2g2 c'agf efed|c2e2c2G2 EDCD EDEF|GFEF GAGF EFED CG=A=B|c=Bcd edef gfg_a cagf|
V:2
DC=B,=A, G,F,E,D, C,2z2z4|zcBA GAGF E2C2E2G2|cAGF EFED C2E2C2G,2|E,D,C,D, E,D,E,F, G,A,G,F, E,F,E,D,|C,G,=A,=B, CB,CD E2c2_B2_A2|
V:3
z8z2C,2E,2G,2|C,2C2z4C,2C2z4|C,2C2z4C,2C2z4|C,2C2z4C,2C2z4|C,16-|
V:1
=edcd edef gefg cgfe|fagb ac'ba gagf =e_dcB|ABcB AGF_E _DcBA GABA|GF=E=D CB,A,G, F,2z2 zcd=e|
V:2
B4C=B,CD =E2B2A2G2|A2=E2F2_D2 B,2A2G2_d2|c2=E2F2A,2 G,2F2B2=D2|=EFGA B_dcB AC=D=E FEFG|
V:3
C,16-|C,16-|C,8z8|z8z2F,2A,,2C,2|
V:1
f=efc BfAc fefc df_ef|d16-|dcdB AdGB ede=B cede|c16-|
V:2
A16-|AGAF EBDF BABF GBAB|G16-|GFGE DGCE AGAE FAGA|
V:3
F,,2A,2G,2F,2 A,,2A,2G,2F,2|B,,2A,2G,2F,2 D,2A,2G,2F,2|E,,2G,2F,2E,2 G,,2G,2F,2E,2|A,,2G,2F,2E,2 C,2G,2F,2E,2|
V:1
c=BcA GcFc dcd=A =Bdcd|=B2d2g2f2- f2_A2G2f2|edc_B AcFe dcBA GBE_d|cBAG FA=Dc =BG^FG BGdG|
V:2
F16-|FEFD CF=B,D GD=BD EGcB|c2e4A2- A2d4G2-|G2c4F2- Fc=B2z4|
V:3
D,,2F,2E,2D,2 F,,2F,2E,2D,2|G,,2F,2E,2D,2 =B,,2F,2E,2D,2|C,2C2F,2C2 _B,,2B,2E,2B,2|A,,2A,2D,2A,2 G,,2G,4F,2|
% (5)
V:1
g8-gf=ed cf_Bf|A8-AGFE DFCF|=B,4z2=B2 cG=AB cBcd|e2g2c2=e2 f=EFG ABc_d|
V:2
zC=B,C ECGCc8-|cBAG FAEAD8-|DC=B,=A, G,DF,D E,F,E,D, C,2z2|zCD=E FEFG!trill!!trill(!A8|
V:3
E,2D,2C,2B,,2 A,,2A,4G,2|F,2E,2D,2C,2 =B,,2=B,4=A,2|G,2F,2E,2D,2 C,2C4_B,2|_A,2B,2A,2G,2F,4z4|
V:1
_ec_Ge F_dEc _DF=G=A Bc=de|fd_Af G=Bdf!trill!!trill(!e8|=e8f8|^f8!trill)!g4z4|
V:2
=A8B8|=B8!trill)!c=B,CD EFGA|_BG_DB CAB,G A,C=D=E FG=AB|c=A_Ec D^FAcP=B4z4|
V:3
C,4F,4B,,4z4|D,4G,4C,4z4|G,,4C,4F,,4z4|=A,,4D,4G,,2_A,G, =B,=A,CB,|
V:1
g4EDEF G2g2Pf2e2|f4DCDE F2f2Pe2d2|edc_B AcFe dcBA GBE_d|cBAG FA=Dc =B2cd efga|
V:2
e4C=B,CD E2e2Pd2c2|d4=B,=A,B,C D2d2Pc2=B2|c2e4A2- A2d4G2-|G2c4F2- F=DEF GA_Bc|
V:3
C2C,2z4z8|G,2G,,2z4z8|C,2C2F,2C2 B,,2B,2E,2B,2|A,,2A,2=D,2A,2 G,,2G,4F,2|
V:1
b4GFGA Bc_db adgd|[ca]4AGAB c=dea daca|=B2a2g2f2 G2f2e2d2|c2d2G2=B2Hc8|]
V:2
_d4=E=DEF G2g2f2=e2|f4F=EFG A2G2F2_E2|FEDC =B,DG,D EFG=A =BdGB|cE_AG FEDCHC8|]
V:3
=E,2=E,,2z4z8|_E,2_E,,2z4z8|D,,2z2 G,,2z2 C,2z2 G,2z2|A,2F,2G,2G,,2HC,8|]



